X: 20880
T: Jolly Vagabond, The
R: reel
M: 4/4
K: Eminor
|:GF|E2EF EDB,D|EDEF G2GA|B2Bc BAGE|FGFE DFED|
E2EF EDB,D|EDEF G2GA|B2e2 dBAF|GFED E2:|
|:Bd|e2ef edBA|Bdef edB^c|d2dB ^cBAc|BAFE DFED|
G2BG FGAF|GFED E2Bd|edBA BAGE|FEDF E2:|

